X: 7114
T: Christmas Eve
R: reel
M: 4/4
K: Gmajor
GE|:DB,DE G2 GA|B2 dB ABGA|BAGE DB,DE|GA BG ABGE|
DB,DE G2GA|B2 dB ABGA|BAAB GEEG|1 ABGF G2 GE:|2 ABGF ~G3A||
|:BABd edeg|ab ge g2eg|a2 ab geef|gedB A2GA|
BABd edeg|ab ge g2eg|a2 ab gedB|ABGF G2GA:|
|:BG~G2 AGBd|eg~g2 egdc|BGAG BGAG|EAAG ABcd|
BG~G2 AGBd|eg~g2 efga|bgaf gedB|1 ABGF G2GA:|2 ABGF G2 GE||

